docs/img/insta.svg.svg

<svg width="22" height="21" viewBox="0 0 22 21" fill="none" xmlns="http://www.w3.org/2000/svg">
<path d="M22 12.0849C22 9.70755 21.698 7.33019 21.698 5.05189C21.698 4.25944 21.5974 3.56604 21.4967 2.77359C21.3961 2.47642 21.3961 2.08019 21.2954 1.68396C20.9935 1.48585 21.0941 1.08962 20.7922 0.891511C20.3896 0.693398 19.5844 0.792453 19.0811 0.693397C18.3766 0.693397 17.7727 0.594339 17.1688 0.495283C15.2564 0.396226 13.1427 0.396228 11.1297 0.396228C9.11669 0.396228 7.10367 0.29717 5.39261 0H3.17829C3.07764 0 3.07764 0.0990589 2.97699 0.0990589C2.37308 0.0990589 1.86983 0.297171 1.36657 0.396228C1.16527 0.495284 0.963971 0.59434 0.662018 0.693397C0.561367 0.89151 0.158762 0.792455 0.0581108 1.08962C-0.143191 1.28774 0.259412 1.58491 0.0581108 1.68396V2.57547C0.259412 2.67453 0.0581131 3.16981 0.158764 3.36793V4.35849C0.158764 5.64623 0.259413 6.73585 0.259413 8.02359C0.762667 10.7972 0.662019 14.4623 0.360066 17.3349C0.561368 17.9292 0.76267 18.4245 0.863321 19.0189C1.16527 19.5142 1.16527 20.1085 1.56787 20.5047C2.07113 20.7028 2.77569 20.7028 3.48024 20.7028C3.88284 20.8019 4.1848 21 4.5874 21C7.40562 20.8019 10.1232 20.8019 13.0421 20.8019C15.7596 21 18.8798 21 21.3961 20.6038C21.5974 20.5047 21.4967 20.1085 21.5974 19.8113C21.4967 19.4151 21.7987 19.4151 21.7987 19.0189C22 16.9387 22 14.5613 22 12.0849ZM8.91539 5.9434C9.7206 5.74528 10.4252 5.64623 11.331 5.64623C12.0356 5.74528 12.6395 5.9434 13.2434 6.14151C13.344 6.33962 13.0421 6.63679 13.4447 6.83491C13.5453 6.83491 13.5453 6.8349 13.646 6.93396C14.0486 6.93396 14.4512 7.13208 14.7531 7.33019C15.2564 7.42925 15.2564 7.82547 15.8603 7.72642C15.7596 7.92453 15.7596 8.2217 15.7596 8.51887C16.0616 9.70755 16.2629 11.2925 16.0616 12.7783C15.8603 12.9764 15.8603 13.1745 15.7596 13.4717C15.4577 13.7689 15.2564 14.2642 14.9544 14.5613C14.8538 14.7594 14.6525 14.9575 14.4512 15.0566C14.3505 15.2547 14.2499 15.5519 13.9479 15.5519C13.646 15.75 13.344 15.5519 13.1427 15.4528C12.7401 15.6509 12.2369 15.75 11.9349 16.0472C11.1297 15.9481 10.3245 15.8491 9.51929 15.75C9.31799 15.6509 9.01604 15.4528 8.71409 15.4528C8.51278 15.2547 8.21083 15.0566 7.90888 14.9575C7.80823 14.8585 7.60693 14.8585 7.40563 14.7594C7.20432 14.7594 7.20432 14.5613 6.90237 14.5613C6.80172 14.1651 6.49977 13.967 6.39912 13.4717C6.19782 13.1745 6.09716 12.6792 5.89586 12.283C5.89586 10.8962 5.99651 9.60849 6.29846 8.51887C6.60042 7.92453 7.10367 7.42925 7.40563 6.83491C7.60693 6.83491 7.80823 6.73585 7.80823 6.53774C8.11018 6.63679 8.21083 6.43868 8.51278 6.43868C8.71409 6.43868 8.71409 6.14151 8.91539 5.9434ZM7.20432 3.26887C7.10367 2.9717 7.10367 2.57547 7.10367 2.17925C7.10367 1.88208 7.40563 1.88208 7.40563 1.68396C7.40563 1.58491 7.30497 1.58491 7.20432 1.58491C7.30497 1.48585 7.90888 1.48585 8.00953 1.58491C8.11018 2.08019 7.60693 2.08019 7.50628 2.2783C7.50628 2.47642 7.80823 2.2783 8.00953 2.37736C8.00953 3.26887 7.90888 3.86321 8.00953 4.55661H7.50628C7.50628 4.75472 7.70758 4.75472 8.00953 4.75472C7.90888 5.05189 8.11018 5.15094 8.11018 5.34906C7.90888 5.54717 7.40562 5.34906 7.00302 5.44811C7.00302 4.85377 7.30497 4.06132 7.20432 3.26887ZM6.49977 1.68396C6.60042 1.68396 6.60042 1.68396 6.70107 1.78302C6.90237 2.08019 6.70107 2.47642 6.60042 2.67453C6.39911 2.47642 6.60042 1.98113 6.49977 1.68396ZM6.70107 3.46698C6.60042 3.36792 6.49977 3.26887 6.49977 2.9717C6.70107 3.07075 6.70107 3.26887 6.70107 3.46698ZM6.70107 4.85377C6.60042 4.95283 6.60042 4.85377 6.60042 4.65566C6.70107 4.5566 6.70107 4.75472 6.70107 4.85377ZM6.49977 5.05189C6.70107 5.05189 6.60042 5.25 6.70107 5.25C6.70107 5.44812 6.39912 5.44811 6.29846 5.34906C6.39912 5.25 6.49977 5.15094 6.49977 5.05189ZM4.1848 3.86321C4.1848 3.76415 4.1848 3.66509 4.08414 3.66509C3.98349 2.9717 4.1848 2.2783 4.08414 1.68396C4.3861 1.48585 4.88935 1.68396 5.19131 1.58491V2.67453C5.09066 2.77359 4.99 2.77359 4.7887 2.77359C4.68805 3.07076 5.09066 2.87264 5.19131 3.07076C5.19131 3.96227 5.09066 4.85377 5.39261 5.44811C4.7887 5.34906 4.48675 5.54717 3.9835 5.54717C4.08415 4.95283 3.9835 4.16038 4.48675 3.96226C4.48675 3.86321 4.1848 3.96226 4.1848 3.86321ZM3.68154 3.86321C3.48024 3.86321 3.48024 3.36793 3.58089 3.26887C3.88284 3.26887 3.78219 3.76415 3.68154 3.86321ZM3.48024 4.85377C3.58089 4.5566 3.48024 4.5566 3.58089 4.16038C3.78219 4.16038 3.78219 4.95283 3.48024 4.85377ZM3.68154 2.77359C3.37959 2.87264 3.37959 2.47642 3.48024 2.37736C3.78219 2.37736 3.88285 2.67453 3.68154 2.77359ZM3.68154 1.68396C3.68154 1.88208 3.58089 1.88208 3.58089 1.98113C3.37959 1.98113 3.48024 1.78302 3.37959 1.78302C3.48024 1.68396 3.58089 1.68396 3.68154 1.68396ZM3.48024 5.34906C3.58089 5.34906 3.58089 5.64623 3.37959 5.54717C3.48024 5.54717 3.48024 5.44811 3.48024 5.34906ZM2.77568 1.68396C2.77568 1.98113 2.37308 1.98113 2.37308 1.68396H2.77568ZM1.76918 1.78302C1.76918 1.98113 1.46723 1.98113 1.36657 2.17925C1.16527 1.98113 1.46722 1.68396 1.76918 1.78302ZM1.36657 2.47641C1.56788 2.2783 1.86983 2.08019 2.07113 1.88208C2.07113 1.78302 2.17178 1.78302 2.17178 1.68396H2.37308C2.47373 2.08019 2.07113 1.98113 2.07113 2.17925C2.07113 2.2783 1.97048 2.2783 1.97048 2.37736C1.97048 2.67453 2.07113 2.9717 2.07113 3.36793C1.76918 3.36793 1.76918 3.6651 1.46722 3.56604C1.46722 3.16981 1.26592 2.9717 1.36657 2.47641ZM1.46722 5.74529V4.16038C1.66853 3.96226 1.86983 3.76415 2.07113 3.66509C2.37308 4.16038 2.27243 5.05189 2.57438 5.54717C2.17178 5.64623 1.76918 5.64623 1.46722 5.74529ZM19.7857 16.7406C19.685 17.7311 19.5844 18.7217 19.3831 19.5142C16.4642 19.6132 13.344 19.5141 10.4252 19.7123C10.2239 19.7123 10.1232 19.7123 10.2238 19.5142C9.9219 19.5142 9.9219 19.7123 9.72059 19.7123C9.9219 19.4151 10.1232 18.8207 9.9219 18.4245C9.11669 18.4245 9.11669 19.217 8.81474 19.7123C8.11018 19.6132 7.70758 19.8113 7.00302 19.8113C7.20432 19.1179 7.70758 18.8208 7.90888 18.1274C7.50628 17.6321 6.90237 18.2264 6.70107 18.6226C6.49977 19.1179 6.09716 19.4151 5.89586 19.9104H4.88935C5.09066 19.4151 5.39261 19.0189 5.69456 18.5236C5.89586 18.0283 6.29847 17.8302 6.39912 17.1368C6.19782 16.8396 5.99651 17.1368 5.69456 17.1368C5.59391 17.3349 5.39261 17.434 5.29196 17.6321C5.09065 18.0283 4.7887 18.3255 4.5874 18.7217C4.3861 18.9198 4.28545 18.7217 4.08414 18.9198C3.68154 19.217 3.48024 19.6132 3.07764 19.9104C2.87633 19.8113 3.07764 19.5142 3.27894 19.5142C3.27894 19.316 3.17829 19.0189 3.37959 18.9198C3.48024 18.5236 3.58089 18.3255 3.78219 18.0283C3.88284 17.3349 4.28545 16.8396 4.48675 16.1462C3.88284 16.2453 3.78219 16.7406 3.48024 17.1368C3.27894 17.533 2.97699 17.9292 2.77568 18.4245C2.57438 18.3255 2.77569 17.8302 2.67503 17.6321C2.77569 17.0377 2.97699 16.5424 3.07764 15.9481C3.17829 15.75 3.27894 15.4528 3.27894 15.1557C3.48024 14.9575 3.27894 14.5613 3.17829 14.3632C2.97699 14.3632 2.77569 14.4623 2.67503 14.6604C2.47373 14.6604 2.47373 15.1557 2.37308 14.9575C2.37308 12.3821 1.86983 10.2028 1.86983 7.62736C1.86983 7.33019 1.66853 7.23113 1.66853 6.93396C3.27894 6.93396 4.7887 7.03302 6.49977 7.13207C6.39912 7.23113 6.29847 7.42925 6.19781 7.5283C6.09716 7.62736 5.99651 7.72642 5.79521 7.82547C5.1913 9.50943 4.7887 11.7877 5.19131 13.967C5.39261 14.5613 5.79521 14.9575 6.19781 15.3538C7.10367 15.8491 7.80823 16.4434 8.71409 17.0377C10.4252 17.434 12.5388 17.434 14.2499 17.0377C14.4512 16.9387 14.7531 16.8396 14.9544 16.6415C16.3636 15.4528 17.7727 14.1651 17.974 11.7877V10.4009C17.7727 8.81604 17.2694 7.5283 16.2629 6.83491C16.5648 6.63679 17.3701 6.8349 17.974 6.93396C18.1753 6.93396 18.3766 6.93396 18.6785 6.93396C19.0811 6.93396 19.5844 6.8349 20.0876 6.93396C20.1883 7.13207 20.1883 7.42925 20.2889 7.72642C20.1883 9.41038 20.0876 10.9953 20.0876 12.7783C20.1883 13.2736 20.1883 13.7689 20.2889 14.1651C20.0876 14.9575 19.987 15.8491 19.7857 16.7406ZM20.1883 5.64623C19.5844 5.54717 18.9805 5.34906 18.2759 5.25C18.3766 4.95283 19.0811 5.25 19.2824 5.05189C19.685 4.85378 19.5844 4.16038 19.5844 3.56604C19.5844 3.26887 19.685 2.9717 19.685 2.47641C19.2824 1.48585 17.8733 2.08019 16.7661 1.98113C16.5648 2.67453 16.2629 3.76415 16.4642 4.65566C16.6655 5.15094 17.4707 4.95283 17.974 5.15094C17.8733 5.44811 17.2694 5.25 16.9675 5.25C16.6655 5.15095 16.2629 5.15094 15.9609 5.05189C13.646 5.15094 11.633 5.05189 9.41864 5.25C9.51929 4.06132 9.51929 2.77359 9.31799 1.68396H12.4382C12.1362 2.08019 11.5323 2.17924 11.1297 2.47641C10.7271 2.67453 10.2238 2.9717 10.0225 3.36793C10.2238 3.46698 10.5258 3.16981 10.8278 2.9717C11.2304 2.87264 11.331 2.57547 11.633 2.47641C12.0356 2.08019 12.7401 1.88208 13.344 1.58491C13.7466 1.58491 14.0486 1.58491 14.3505 1.68396C15.659 1.68396 16.8668 1.78302 18.1753 1.78302C18.7792 1.88208 19.685 1.88208 20.1883 2.08019C20.2889 2.37736 20.3896 2.67453 20.4902 2.9717C20.3896 3.96226 20.1883 4.75472 20.1883 5.64623ZM14.2499 1.98113C14.3505 1.88208 14.2499 1.88208 14.2499 1.98113V1.98113ZM14.2499 1.98113C13.7466 2.17924 13.2434 2.2783 12.8408 2.67453C13.344 2.47642 13.9479 2.37736 14.2499 1.98113ZM15.357 2.57547C15.4577 2.47642 15.357 2.47642 15.357 2.57547V2.57547ZM13.5453 3.46698C14.2499 3.26887 14.7531 2.87264 15.2564 2.57547C14.8538 2.57547 14.6525 2.87264 14.2499 2.9717C14.1492 3.16981 13.7466 3.16981 13.5453 3.46698ZM12.8408 2.67453C12.7401 2.67453 12.9414 2.77359 12.8408 2.67453V2.67453ZM12.2369 3.26887C12.3375 3.16981 12.2369 3.16981 12.2369 3.26887V3.26887ZM12.1362 3.36793C12.2369 3.36793 12.2369 3.26887 12.1362 3.36793C12.1362 3.26887 12.1362 3.26887 12.1362 3.36793ZM12.0356 3.36793C12.1362 3.36793 12.1362 3.36793 12.0356 3.36793C12.0356 3.26887 12.0356 3.36793 12.0356 3.36793ZM11.2304 3.96226C11.5323 3.86321 11.8343 3.6651 12.0356 3.36793C11.7336 3.56604 11.4317 3.76415 11.2304 3.96226ZM13.5453 4.95283C14.0486 4.95283 14.2499 4.5566 14.7531 4.45755C15.0551 4.16038 15.5583 4.06132 15.7596 3.66509C15.1557 3.66509 14.9544 4.06132 14.5518 4.16038C14.2499 4.5566 13.7466 4.65566 13.5453 4.95283ZM11.2304 3.96226C10.9284 3.96226 11.2304 4.25943 11.2304 3.96226V3.96226ZM10.6265 4.35849C10.7271 4.35849 10.8278 4.35849 10.6265 4.35849C10.7271 4.25943 10.6265 4.35849 10.6265 4.35849ZM13.5453 4.95283C13.344 5.05189 13.5453 5.05189 13.5453 4.95283V4.95283ZM12.3375 6.73585C12.1362 6.53774 11.633 6.53774 11.331 6.33962C10.6265 6.33962 10.1232 6.43868 9.61994 6.53774C9.31799 6.73585 9.01604 6.83491 8.71409 7.03302C8.41213 7.23113 8.31148 7.42925 7.90888 7.5283C7.70758 7.72642 7.50628 8.02358 7.20432 8.12264C7.20432 8.32075 7.00302 8.41981 6.90237 8.51887C6.80172 8.61792 6.80172 8.81604 6.70107 8.91509C6.70107 9.01415 6.70107 9.21227 6.60042 9.21227C6.70107 10.6981 6.90237 12.0849 7.30497 13.3726C7.60693 13.967 8.31148 14.1651 8.71409 14.6604C9.31799 14.9575 10.0225 15.0566 10.8278 15.1557C11.1297 15.0566 11.4317 15.0566 11.7336 15.0566C12.9414 14.8585 13.8473 14.3632 14.5518 13.6698C14.6525 13.3726 14.8538 13.1745 15.0551 12.9764C14.7531 12.283 15.357 11.8868 15.5583 11.3915C15.5583 10.1038 15.357 8.91509 14.9544 8.02359C14.6525 7.42925 14.0486 7.23113 13.5453 6.93396C13.4447 6.93396 13.344 6.93396 13.344 6.83491C13.1427 6.73585 12.6395 6.63679 12.3375 6.73585ZM8.91539 11.0943C8.81474 10.9953 8.81474 10.8962 8.71409 10.6981C9.01604 10.5991 8.91539 10.8962 8.91539 11.0943ZM9.01604 11.3915C9.01604 11.2925 9.11669 11.3915 9.01604 11.3915C9.01604 11.5896 9.01604 11.4906 9.01604 11.3915ZM9.41864 9.31132C9.41864 9.21226 9.51929 9.31132 9.41864 9.31132C9.51929 9.41038 9.41864 9.41038 9.41864 9.31132ZM11.1297 7.23113C10.9284 7.5283 11.1297 7.82547 11.2304 8.02359C10.9284 8.02359 10.6265 7.23113 11.1297 7.23113ZM11.5323 11.0943C11.4317 11.0943 11.5323 11.0943 11.5323 11.0943C11.633 11.0943 11.5323 11.1934 11.5323 11.0943ZM12.2369 13.967C12.2369 13.8679 12.3375 13.967 12.4382 13.967C12.4382 14.066 12.2369 14.066 12.2369 13.967ZM14.4512 11.4906C14.2499 11.3915 14.3505 11.6887 14.0486 11.6887C14.1492 11.4906 14.1492 11.3915 14.2499 11.1934C14.4512 11.1934 14.5518 11.2924 14.4512 11.4906ZM13.344 7.72642C13.5453 7.82547 13.7466 7.92453 13.9479 8.12264C14.0486 8.32075 14.1492 8.51887 14.3505 8.61792C14.4512 9.41038 14.5518 10.1038 14.5518 10.9953C14.2499 11.0943 14.1492 11.2925 13.8473 11.3915C13.0421 11.3915 12.4382 11.1934 11.9349 10.8962C11.7336 10.5991 11.5323 10.4009 11.4317 10.1038V9.01415C11.633 8.81604 11.7336 8.61792 11.9349 8.41981C12.1362 8.32075 12.4382 8.2217 12.4382 7.82547C12.4382 7.72642 12.3375 7.72641 12.3375 7.62736C12.5388 7.62736 12.5388 7.82547 12.7401 7.82547C12.9414 7.82547 13.0421 7.62736 13.344 7.72642Z" fill="black"/>
</svg>

<svg width="22" height="21" fill="none" xmlns="http://www.w3.org/2000/svg"><path d="M22 12.085c0-2.377-.302-4.755-.302-7.033 0-.793-.1-1.486-.201-2.278-.1-.298-.1-.694-.202-1.09-.302-.198-.2-.594-.503-.792-.402-.199-1.208-.1-1.71-.199-.705 0-1.31-.099-1.913-.198-1.913-.099-4.026-.099-6.04-.099C9.118.396 7.105.297 5.394 0H3.178c-.1 0-.1.1-.201.1-.604 0-1.107.197-1.61.296-.202.1-.403.198-.705.297-.1.199-.503.1-.604.397-.201.198.201.495 0 .594v.891c.201.1 0 .595.1.793v.99c0 1.288.101 2.378.101 3.666.504 2.773.403 6.438.101 9.31.201.595.403 1.09.503 1.685.302.495.302 1.09.705 1.486.503.198 1.208.198 1.912.198.403.099.705.297 1.107.297 2.819-.198 5.536-.198 8.455-.198 2.718.198 5.838.198 8.354-.198.201-.1.1-.495.201-.793-.1-.396.202-.396.202-.792.201-2.08.201-4.458.201-6.934zM8.915 5.943a9.485 9.485 0 012.416-.297c.705.1 1.309.297 1.912.496.101.198-.2.495.202.693.1 0 .1 0 .201.099.403 0 .805.198 1.107.396.503.1.503.495 1.107.396-.1.199-.1.496-.1.793.302 1.189.503 2.774.302 4.26-.202.197-.202.396-.302.693-.302.297-.504.792-.806 1.09-.1.197-.302.396-.503.495-.1.198-.201.495-.503.495-.302.198-.604 0-.805-.1-.403.199-.906.298-1.208.595l-2.416-.297c-.201-.1-.503-.297-.805-.297a2.198 2.198 0 00-.805-.495c-.1-.1-.302-.1-.503-.199-.202 0-.202-.198-.504-.198-.1-.396-.402-.594-.503-1.09-.201-.296-.302-.792-.503-1.188 0-1.387.1-2.675.402-3.764.302-.594.806-1.09 1.108-1.684.2 0 .402-.1.402-.297.302.099.403-.1.705-.1.201 0 .201-.296.402-.495zM7.205 3.27c-.101-.297-.101-.694-.101-1.09 0-.297.302-.297.302-.495 0-.1-.101-.1-.202-.1.101-.098.705-.098.806 0 .1.496-.403.496-.504.694 0 .198.302 0 .504.1 0 .89-.101 1.485 0 2.179h-.504c0 .198.202.198.504.198-.101.297.1.396.1.594-.201.198-.704 0-1.107.1 0-.595.302-1.388.201-2.18zM6.5 1.684c.1 0 .1 0 .201.099.201.297 0 .693-.1.892-.202-.199 0-.694-.101-.991zm.2 1.783c-.1-.1-.201-.198-.201-.495.201.099.201.297.201.495zm0 1.387c-.1.099-.1 0-.1-.198.1-.1.1.099.1.198zm-.201.198c.201 0 .1.198.201.198 0 .198-.302.198-.403.1.101-.1.202-.2.202-.298zM4.185 3.863c0-.099 0-.198-.1-.198-.102-.693.1-1.387 0-1.981.301-.198.804 0 1.106-.1v1.09c-.1.1-.201.1-.402.1-.101.297.302.099.402.297 0 .891-.1 1.783.202 2.377-.604-.099-.906.1-1.41.1.101-.595 0-1.388.504-1.586 0-.099-.302 0-.302-.099zm-.503 0c-.202 0-.202-.495-.101-.594.302 0 .201.495.1.594zm-.202.99c.1-.296 0-.296.1-.693.202 0 .202.793-.1.694zm.202-2.08c-.302.1-.302-.297-.202-.396.302 0 .403.298.202.397zm0-1.089c0 .198-.101.198-.101.297-.201 0-.1-.198-.201-.198.1-.099.2-.099.302-.099zM3.48 5.349c.1 0 .1.297-.1.198.1 0 .1-.099.1-.198zm-.704-3.665a.202.202 0 01-.403 0h.403zm-1.007.099c0 .198-.302.198-.402.396-.202-.198.1-.495.402-.396zm-.402.693c.2-.198.503-.396.704-.594 0-.099.1-.099.1-.198h.202c.1.396-.302.297-.302.495 0 .1-.1.1-.1.198 0 .298.1.595.1.99-.302 0-.302.298-.604.199 0-.396-.201-.594-.1-1.09zm.1 3.27V4.16c.202-.198.403-.396.604-.495.302.495.201 1.387.503 1.882-.402.1-.805.1-1.107.198zM19.786 16.74c-.101.99-.202 1.98-.403 2.773-2.919.1-6.039 0-8.958.198-.201 0-.302 0-.201-.198-.302 0-.302.198-.503.198.2-.297.402-.891.2-1.288-.804 0-.804.793-1.106 1.288-.705-.099-1.107.1-1.812.1.201-.694.705-.991.906-1.685-.403-.495-1.007.1-1.208.496-.201.495-.604.792-.805 1.287H4.889c.202-.495.504-.891.806-1.386.2-.496.603-.694.704-1.387-.201-.297-.402 0-.704 0-.101.198-.302.297-.403.495-.201.396-.503.694-.705 1.09-.2.198-.302 0-.503.198-.402.297-.604.693-1.006.99-.202-.099 0-.396.2-.396 0-.198-.1-.495.102-.594.1-.396.2-.595.402-.892.1-.693.503-1.188.705-1.882-.604.1-.705.595-1.007.99-.201.397-.503.793-.704 1.288-.202-.098 0-.594-.101-.792.1-.594.302-1.09.403-1.684.1-.198.2-.495.2-.792.202-.199 0-.595-.1-.793-.201 0-.402.1-.503.297-.201 0-.201.496-.302.297 0-2.575-.503-4.754-.503-7.33 0-.297-.201-.396-.201-.693 1.61 0 3.12.099 4.83.198-.1.1-.2.297-.301.396-.1.1-.201.198-.403.297-.604 1.684-1.006 3.963-.604 6.142.202.594.604.99 1.007 1.387.906.495 1.61 1.09 2.516 1.684 1.711.396 3.825.396 5.536 0 .201-.1.503-.198.704-.396 1.41-1.19 2.819-2.477 3.02-4.854V10.4c-.201-1.585-.705-2.873-1.711-3.566.302-.198 1.107 0 1.711.099h.704c.403 0 .906-.1 1.41 0 .1.198.1.495.2.792-.1 1.684-.2 3.27-.2 5.052.1.496.1.99.2 1.387-.2.793-.301 1.684-.502 2.576zm.402-11.095c-.604-.099-1.207-.297-1.912-.396.1-.297.805 0 1.006-.198.403-.198.302-.892.302-1.486 0-.297.101-.594.101-1.09-.403-.99-1.812-.396-2.919-.495-.201.694-.503 1.783-.302 2.675.202.495 1.007.297 1.51.495-.1.297-.705.099-1.006.099-.302-.1-.705-.1-1.007-.198-2.315.099-4.328 0-6.542.198.1-1.189.1-2.476-.101-3.566h3.12c-.302.396-.906.495-1.308.792-.403.199-.906.496-1.107.892.2.099.503-.198.805-.396.402-.1.503-.397.805-.496.403-.396 1.107-.594 1.711-.891.403 0 .705 0 1.007.099 1.308 0 2.516.099 3.824.099.604.1 1.51.1 2.013.297l.302.892c-.1.99-.302 1.783-.302 2.674zM14.25 1.981c.1-.099 0-.099 0 0zm0 0c-.503.198-1.007.297-1.41.694.504-.199 1.108-.298 1.41-.694zm1.107.594c.1-.099 0-.099 0 0zm-1.812.892c.705-.198 1.208-.594 1.711-.892-.402 0-.604.298-1.006.397-.1.198-.503.198-.705.495zm-.704-.792c-.1 0 .1.099 0 0zm-.604.594c.1-.1 0-.1 0 0zm-.1.099c.1 0 .1-.1 0 0 0-.1 0-.1 0 0zm-.101 0c.1 0 .1 0 0 0 0-.1 0 0 0 0zm-.806.594c.302-.099.604-.297.806-.594-.302.198-.604.396-.806.594zm2.315.99c.504 0 .705-.395 1.208-.494.302-.298.805-.397 1.007-.793-.604 0-.806.396-1.208.495-.302.397-.805.496-1.007.793zm-2.315-.99c-.302 0 0 .297 0 0zm-.604.396c.101 0 .202 0 0 0 .101-.099 0 0 0 0zm2.92.595c-.202.099 0 .099 0 0zm-1.208 1.783c-.202-.198-.705-.198-1.007-.396-.704 0-1.208.099-1.711.198-.302.198-.604.297-.906.495-.302.198-.403.396-.805.495-.201.198-.403.496-.705.595 0 .198-.201.297-.302.396-.1.099-.1.297-.2.396 0 .1 0 .297-.102.297.101 1.486.302 2.873.705 4.16.302.595 1.006.793 1.41 1.288.603.297 1.308.397 2.113.496.302-.1.604-.1.906-.1 1.207-.197 2.113-.693 2.818-1.386.1-.297.302-.495.503-.694-.302-.693.302-1.09.503-1.585 0-1.287-.201-2.476-.604-3.367-.302-.595-.905-.793-1.409-1.09-.1 0-.201 0-.201-.1-.201-.098-.704-.197-1.006-.098zm-3.423 4.358c-.1-.099-.1-.198-.2-.396.301-.099.2.198.2.396zm.101.298c0-.1.1 0 0 0 0 .198 0 .099 0 0zm.403-2.08c0-.1.1 0 0 0 .1.098 0 .098 0 0zm1.71-2.08c-.2.296 0 .593.101.792-.302 0-.604-.793-.1-.793zm.403 3.862c-.1 0 0 0 0 0 .101 0 0 .1 0 0zm.705 2.873c0-.1.1 0 .201 0 0 .099-.201.099-.201 0zm2.214-2.476c-.201-.1-.1.198-.402.198.1-.198.1-.297.2-.496.202 0 .303.1.202.298zm-1.107-3.765c.201.1.403.199.604.397.1.198.201.396.402.495.101.792.202 1.486.202 2.377-.302.1-.403.298-.705.397-.805 0-1.409-.199-1.912-.496-.201-.297-.403-.495-.503-.792v-1.09c.201-.198.302-.396.503-.594.201-.1.503-.198.503-.595 0-.099-.1-.099-.1-.198.2 0 .2.198.402.198.201 0 .302-.198.604-.099z" fill="#000"/></svg>
